papirus/32x32/emblems/emblem-unlocked.svg

<?xml version="1.0" encoding="UTF-8" standalone="no"?>
<svg
   xmlns:dc="http://purl.org/dc/elements/1.1/"
   xmlns:cc="http://creativecommons.org/ns#"
   xmlns:rdf="http://www.w3.org/1999/02/22-rdf-syntax-ns#"
   xmlns:svg="http://www.w3.org/2000/svg"
   xmlns="http://www.w3.org/2000/svg"
   xmlns:sodipodi="http://sodipodi.sourceforge.net/DTD/sodipodi-0.dtd"
   xmlns:inkscape="http://www.inkscape.org/namespaces/inkscape"
   version="1.1"
   id="svg2"
   viewBox="0 0 32 32"
   width="32"
   height="32"
   inkscape:version="0.91 r13725"
   sodipodi:docname="emblem-unlocked.svg">
  <sodipodi:namedview
     pagecolor="#ffffff"
     bordercolor="#666666"
     borderopacity="1"
     objecttolerance="10"
     gridtolerance="10"
     guidetolerance="10"
     inkscape:pageopacity="0"
     inkscape:pageshadow="2"
     inkscape:window-width="1600"
     inkscape:window-height="849"
     id="namedview7"
     showgrid="false"
     showguides="false"
     inkscape:guide-bbox="true"
     inkscape:snap-bbox="true"
     inkscape:bbox-paths="true"
     inkscape:bbox-nodes="true"
     inkscape:snap-bbox-edge-midpoints="true"
     inkscape:snap-bbox-midpoints="true"
     inkscape:object-paths="true"
     inkscape:snap-intersection-paths="true"
     inkscape:object-nodes="true"
     inkscape:snap-smooth-nodes="true"
     inkscape:snap-midpoints="true"
     inkscape:zoom="13.12"
     inkscape:cx="25.623476"
     inkscape:cy="20.689411"
     inkscape:window-x="0"
     inkscape:window-y="0"
     inkscape:window-maximized="1"
     inkscape:current-layer="svg2">
    <inkscape:grid
       type="xygrid"
       id="grid3194" />
    <sodipodi:guide
       position="24,30.000001"
       orientation="1,0"
       id="guide3196" />
    <sodipodi:guide
       position="55,24"
       orientation="0,1"
       id="guide3198" />
  </sodipodi:namedview>
  <defs
     id="defs8" />
  <metadata
     id="metadata4">
    <rdf:RDF>
      <cc:Work
         rdf:about="">
        <dc:format>image/svg+xml</dc:format>
        <dc:type
           rdf:resource="http://purl.org/dc/dcmitype/StillImage" />
        <dc:title></dc:title>
      </cc:Work>
    </rdf:RDF>
  </metadata>
  <circle
     cy="16"
     cx="16"
     id="path3197"
     style="opacity:1;fill:#646464;fill-opacity:1;stroke:none;stroke-width:2;stroke-miterlimit:4;stroke-dasharray:none;stroke-opacity:1"
     r="14" />
  <path
     style="color:#000000;opacity:1;enable-background:accumulate;fill:#ffffff;fill-opacity:1"
     d="M 16 8 C 13.395848 8 11.189213 9.1590918 11.007812 12 L 13.066406 12 C 13.367568 10.402006 14.758729 10 16 10 C 17.4 10 19 10.480096 19 12.666016 L 19 15 L 16 15 L 13 15 L 11 15 L 10.166016 15 C 9.5196822 15 9 15.466466 9 16.099609 L 9 22.857422 C 9 23.490565 9.5196822 24 10.166016 24 L 21.833984 24 C 22.480317 24 23 23.490565 23 22.857422 L 23 16.099609 C 23 15.466466 22.489592 15 21.833984 15 L 21 15 L 21 12.666016 C 21 9.3326897 18.8 8 16 8 z "
     id="path5975" />
</svg>

<?xml version="1.0" encoding="UTF-8" standalone="no"?>
<svg id="svg2" xmlns:rdf="http://www.w3.org/1999/02/22-rdf-syntax-ns#" xmlns="http://www.w3.org/2000/svg" viewBox="0 0 32 32" height="32" width="32" version="1.1" xmlns:cc="http://creativecommons.org/ns#" xmlns:dc="http://purl.org/dc/elements/1.1/">
 <metadata id="metadata4">
  <rdf:RDF>
   <cc:Work rdf:about="">
    <dc:format>image/svg+xml</dc:format>
    <dc:type rdf:resource="http://purl.org/dc/dcmitype/StillImage"/>
    <dc:title/>
   </cc:Work>
  </rdf:RDF>
 </metadata>
 <circle id="path3197" cx="16" cy="16" r="14" fill="#646464"/>
 <path id="path5975" style="color:#000000" d="m16 8c-2.604 0-4.811 1.1591-4.992 4h2.058c0.302-1.598 1.693-2 2.934-2 1.4 0 3 0.48 3 2.666v2.334h-3-3-2-0.834c-0.6463 0-1.166 0.466-1.166 1.1v6.757c0 0.634 0.5197 1.143 1.166 1.143h11.668c0.646 0 1.166-0.509 1.166-1.143v-6.757c0-0.634-0.51-1.1-1.166-1.1h-0.834v-2.334c0-3.3333-2.2-4.666-5-4.666z" fill="#fff"/>
</svg>
